X: 33
T:AIX-LA-CHAPELOISE
M:6/8
L:1/8
Q:1/4=120
C:Yves BELOTTEAU
K:C
|:E|:AzA ABc|BzB Bcd|1eze dzd|czc BcB:|2edc BcB|AzA A2:|!
|:e|:aza age|gzg gec|1BzB czc|dzd ecA:|2Bcd czB|A2A A2:|
